deploy-package/icon-512.svg

<svg width="512" height="512" viewBox="0 0 512 512" fill="none" xmlns="http://www.w3.org/2000/svg">
  <rect width="512" height="512" rx="64" fill="#7dd3fc"/>
  <path d="M128 256c0-70.692 57.308-128 128-128s128 57.308 128 128-57.308 128-128 128-128-57.308-128-128z" fill="white"/>
  <path d="M192 256c0-35.346 28.654-64 64-64s64 28.654 64 64-28.654 64-64 64-64-28.654-64-64z" fill="#0369a1"/>
  <text x="256" y="290" text-anchor="middle" fill="white" font-family="Arial, sans-serif" font-weight="bold" font-size="48">BW</text>
</svg>

<svg width="512" height="512" viewBox="0 0 512 512" fill="none" xmlns="http://www.w3.org/2000/svg">
<rect width="512" height="512" rx="128" fill="#7DD3FC"/>
<path d="M128 256C128 185.307 185.307 128 256 128C326.693 128 384 185.307 384 256C384 326.693 326.693 384 256 384C185.307 384 128 326.693 128 256Z" fill="white"/>
<path d="M192 256C192 220.654 220.654 192 256 192C291.346 192 320 220.654 320 256C320 291.346 291.346 320 256 320C220.654 320 192 291.346 192 256Z" fill="#7DD3FC"/>
</svg>
